X:012 
T:Basket of Turf, The
F:file ID: cre.5/012bask_t
B:CRE5.018 (Cliabh MÃÂÃÂÃÂÃÂ³na)
M:6/8
Q:160
R:jig
K:Em
D|EBB BAG|FDF AGF|EBB B^cd|AGF E2D|
"5"EBB BAG|FDF AGF|GAB B^cd|AGF E2:|
D|"9"Eee efg|d^cB AGF|Eee efg|fdf e2d|
"13"Eee efg|d^cB AGF|GAB^cd|AGF E2:|
F|"17"GBE GBE|FAD FAD|GBE GBd|AGF E2 E/F/|
"21"GBE GBE|FAD FAD|GAG GBd|AGF E2:|

%%%

